X: 1692
T: Ma Seal's Mazurka
B: australian traditional tunes wiki
M:3/4
L:1/8
R: Waltz Mazurka
Q: 1/4=100
K:D
V:1 
|:FG|"D"AF DF AF|d2c2B2|AFD2E2|F3G FE|A,B, CD EF|"A7"E4E2|A,B, CD EF|"D"D4FG|
AF DF AF|d2c2B2|AFD2E2|F3G FE|A,B, CD EF|"A7"E2EF EC|A,B, CD EF|"D"D4A2|
"D"dA FA dA|"A"cA EA cA|"G"BG DG BG|"D"A3B AF|A,B, CD EF|"A7"E2EF EC|A,B, CD EF|"D"D4A2|
"D"dA FA dA|"A"c4c2|"G"B2B2B2|"D"A3B AF|A,B, CD EF|"A7"E2EF EC|A,B, CD EF|"D"D4:|
% abcbook-tune_id 6342d53acd66609ffb9ae37e


% abcbook-boost 0
% abcbook-tablature 
% abcbook-transpose 
% abcbook-lastupdated 1665324378278
% abcbook-soundfonts 
% abcbook-repeats 1
% NFF Book 2013

